svg/color/hyperliquid.svg

<svg width="64" height="65" viewBox="0 0 64 65" fill="none" xmlns="http://www.w3.org/2000/svg">
<rect y="0.303711" width="64" height="64" rx="32" fill="#072723"/>
<rect x="0.5" y="0.803711" width="63" height="63" rx="31.5" stroke="#070B14" stroke-opacity="0.15"/>
<path d="M45.7286 50.29C51.6806 49.9079 56 42.5982 56 33.2429C56 23.8877 51.1651 16.3037 45.2011 16.3037C41.0511 16.3037 37.548 20.3316 35.8007 25.9337C31.9645 32.3473 26.3745 32.9561 22.029 27.1346C20.6551 24.589 18.6041 22.9732 16.3127 22.9732C12.1763 22.9732 10 26.6201 10 33.1152C10 39.6102 12.1763 46.4939 16.3127 46.4939C18.8982 46.4939 21.1777 44.4367 22.5236 41.3079C29.5368 31.7635 35.1535 39.4963 36.7988 42.4023C38.6852 47.0138 41.644 50.5523 45.7286 50.29Z" fill="#97FDE5"/>
</svg>

<svg xmlns="http://www.w3.org/2000/svg" width="64" height="65" fill="none" viewBox="0 0 64 65"><rect width="64" height="64" y=".304" fill="#072723" rx="32"/><rect width="63" height="63" x=".5" y=".804" stroke="#070B14" stroke-opacity=".15" rx="31.5"/><path fill="#97FDE5" d="M45.729 50.29C51.68 49.908 56 42.598 56 33.243s-4.835-16.94-10.799-16.94c-4.15 0-7.653 4.029-9.4 9.63-3.837 6.414-9.426 7.023-13.772 1.202-1.374-2.546-3.425-4.162-5.716-4.162-4.137 0-6.313 3.647-6.313 10.142s2.176 13.379 6.313 13.379c2.585 0 4.865-2.057 6.21-5.186 7.014-9.544 12.63-1.812 14.276 1.094 1.886 4.612 4.845 8.15 8.93 7.888"/></svg>
